packages/foundations/assets/icons/functional/images/transportation/bike_trailer.svg

<svg xmlns="http://www.w3.org/2000/svg" width="32" height="32" fill="none"><path fill="#1A1C1F" fill-rule="evenodd" d="M7.787 7.095c-.425.059-1.162.284-1.52.464-.758.381-1.657 1.191-2.045 1.842-.47.79-.552 1.084-1.344 4.824L2.56 15.73v1.807c0 1.677.008 1.829.108 2.121a2.3 2.3 0 0 0 1.556 1.486c.249.073.345.077.533.027.633-.168.948-.79.689-1.36a1.08 1.08 0 0 0-.618-.557c-.104-.035-.213-.107-.242-.161-.031-.059-.053-.69-.053-1.543v-1.444l.533-2.493c.629-2.938.688-3.102 1.333-3.712.608-.573 1.249-.834 2.045-.834.516 0 .859.086 1.792.45 2.598 1.013 3.76 1.639 5.391 2.903 1.105.858 2.966 2.661 4.263 4.132l.556.631-.095.462c-.246 1.184-.455 1.663-.913 2.084l-.236.218h-1.641c-.912 0-1.725.024-1.83.053-.351.097-.692.578-.69.972.003.401.336.839.719.943.275.074 3.374.078 3.766.004.64-.12 1.336-.656 1.936-1.49.348-.484.44-.738.839-2.322.24-.954.269-1.298.136-1.574-.261-.539-2.528-2.973-4.144-4.448-1.338-1.221-1.988-1.735-3.001-2.374-1.463-.921-4.547-2.281-5.762-2.54-.472-.101-1.305-.137-1.743-.076m.586 3.941c-.392.12-.779.455-.949.823-.123.266-.673 2.8-.673 3.101 0 .441.383.876.85.964.359.067.839-.175 1.013-.512.042-.082.174-.599.292-1.15.119-.551.225-1.011.237-1.022s.449.164.972.39c2.227.963 2.865 1.375 4.258 2.748.59.582.731.694.942.749.316.084.605.006.88-.235.239-.209.338-.437.338-.77 0-.335-.101-.492-.736-1.148-1.446-1.493-2.723-2.291-5.652-3.53-.915-.387-1.124-.457-1.36-.453a2 2 0 0 0-.412.045m.863 7.016c-.186.042-.51.162-.72.266-1.8.892-2.478 3.007-1.54 4.801.252.481.873 1.116 1.344 1.375 1.958 1.074 4.332.154 5.039-1.953.289-.862.222-1.777-.194-2.642-.171-.355-.305-.537-.65-.882-.447-.447-.817-.682-1.407-.891-.407-.145-1.391-.184-1.872-.074m18.341.299c-.432.085-.769.219-1.87.745l-1.094.522-.533.037c-.572.039-.719.09-.943.327-.468.495-.292 1.27.356 1.57.295.137 1.049.136 1.578-.001.221-.058.878-.337 1.489-.633 1.191-.577 1.221-.588 1.827-.649.508-.052.774-.207.94-.549.249-.515.065-1.092-.431-1.351-.162-.085-.926-.095-1.319-.018M10.632 20.08c.301.126.647.473.781.784.146.34.134.91-.027 1.243-.529 1.092-2.114 1.108-2.664.026a1.49 1.49 0 0 1 .887-2.11c.274-.09.734-.064 1.023.057"/></svg>

<svg width="32" height="32" viewBox="0 0 32 32" fill="none" xmlns="http://www.w3.org/2000/svg"><path d="M7.787 7.095 C 7.362 7.154,6.625 7.379,6.267 7.559 C 5.509 7.940,4.610 8.750,4.222 9.401 C 3.752 10.191,3.670 10.485,2.878 14.225 L 2.560 15.730 2.560 17.537 C 2.560 19.214,2.568 19.366,2.668 19.658 C 2.920 20.390,3.485 20.929,4.224 21.144 C 4.473 21.217,4.569 21.221,4.757 21.171 C 5.390 21.003,5.705 20.381,5.446 19.811 C 5.331 19.557,5.090 19.340,4.828 19.254 C 4.724 19.219,4.615 19.147,4.586 19.093 C 4.555 19.034,4.533 18.403,4.533 17.550 L 4.533 16.106 5.066 13.613 C 5.695 10.675,5.754 10.511,6.399 9.901 C 7.007 9.328,7.648 9.067,8.444 9.067 C 8.960 9.067,9.303 9.153,10.236 9.517 C 12.834 10.530,13.996 11.156,15.627 12.420 C 16.732 13.278,18.593 15.081,19.890 16.552 L 20.446 17.183 20.351 17.645 C 20.105 18.829,19.896 19.308,19.438 19.729 L 19.202 19.947 17.561 19.947 C 16.649 19.947,15.836 19.971,15.731 20.000 C 15.380 20.097,15.039 20.578,15.041 20.972 C 15.044 21.373,15.377 21.811,15.760 21.915 C 16.035 21.989,19.134 21.993,19.526 21.919 C 20.166 21.799,20.862 21.263,21.462 20.429 C 21.810 19.945,21.902 19.691,22.301 18.107 C 22.541 17.153,22.570 16.809,22.437 16.533 C 22.176 15.994,19.909 13.560,18.293 12.085 C 16.955 10.864,16.305 10.350,15.292 9.711 C 13.829 8.790,10.745 7.430,9.530 7.171 C 9.058 7.070,8.225 7.034,7.787 7.095 M8.373 11.036 C 7.981 11.156,7.594 11.491,7.424 11.859 C 7.301 12.125,6.751 14.659,6.751 14.960 C 6.751 15.401,7.134 15.836,7.601 15.924 C 7.960 15.991,8.440 15.749,8.614 15.412 C 8.656 15.330,8.788 14.813,8.906 14.262 C 9.025 13.711,9.131 13.251,9.143 13.240 C 9.154 13.228,9.592 13.404,10.115 13.630 C 12.342 14.593,12.980 15.005,14.373 16.378 C 14.963 16.960,15.104 17.072,15.315 17.127 C 15.631 17.211,15.920 17.133,16.195 16.892 C 16.434 16.683,16.533 16.455,16.533 16.122 C 16.533 15.787,16.432 15.630,15.797 14.974 C 14.351 13.481,13.074 12.683,10.145 11.444 C 9.230 11.057,9.021 10.987,8.785 10.991 C 8.632 10.994,8.447 11.014,8.373 11.036 M9.236 18.052 C 9.050 18.094,8.726 18.214,8.516 18.318 C 6.716 19.210,6.038 21.325,6.976 23.119 C 7.228 23.600,7.849 24.235,8.320 24.494 C 10.278 25.568,12.652 24.648,13.359 22.541 C 13.648 21.679,13.581 20.764,13.165 19.899 C 12.994 19.544,12.860 19.362,12.515 19.017 C 12.068 18.570,11.698 18.335,11.108 18.126 C 10.701 17.981,9.717 17.942,9.236 18.052 M27.577 18.351 C 27.145 18.436,26.808 18.570,25.707 19.096 L 24.613 19.618 24.080 19.655 C 23.508 19.694,23.361 19.745,23.137 19.982 C 22.669 20.477,22.845 21.252,23.493 21.552 C 23.788 21.689,24.542 21.688,25.071 21.551 C 25.292 21.493,25.949 21.214,26.560 20.918 C 27.751 20.341,27.781 20.330,28.387 20.269 C 28.895 20.217,29.161 20.062,29.327 19.720 C 29.576 19.205,29.392 18.628,28.896 18.369 C 28.734 18.284,27.970 18.274,27.577 18.351 M10.632 20.080 C 10.933 20.206,11.279 20.553,11.413 20.864 C 11.559 21.204,11.547 21.774,11.386 22.107 C 10.857 23.199,9.272 23.215,8.722 22.133 C 8.298 21.300,8.712 20.315,9.609 20.023 C 9.883 19.933,10.343 19.959,10.632 20.080 " fill="#1A1C1F" stroke="none" fill-rule="evenodd"></path></svg>
